packages/vibrant-icons/assets/icons/ChatBubble/Thin.svg

<svg width="24" height="24" viewBox="0 0 24 24" fill="none" xmlns="http://www.w3.org/2000/svg">
<path d="M21.1989 17.7564L21.1999 21.1999L17.7529 21.2009L17.7559 21.1979C16.0874 22.2444 14.1144 22.8499 11.9999 22.8499C6.0074 22.8499 1.1499 17.9924 1.1499 11.9999C1.1499 6.0074 6.0074 1.1499 11.9999 1.1499C17.9924 1.1499 22.8499 6.0074 22.8499 11.9999C22.8499 14.1159 22.2434 16.0899 21.1959 17.7589L21.1989 17.7564ZM19.4544 19.5004L19.4999 19.4549V17.2714L19.7779 16.8219C20.6754 15.3784 21.1504 13.7109 21.1504 11.9994C21.1504 6.9539 17.0459 2.8494 12.0004 2.8494C6.9549 2.8494 2.8499 6.9544 2.8499 11.9999C2.8499 17.0454 6.9544 21.1499 11.9999 21.1499C13.7104 21.1499 15.3769 20.6759 16.8199 19.7794L17.2679 19.5014H19.4539L19.4544 19.5004Z" fill="#0C0C0C"/>
</svg>

<svg xmlns="http://www.w3.org/2000/svg" width="24" height="24" fill="none"><path fill="#0C0C0C" d="M21.199 17.756V21.2h-3.446l.003-.002A10.8 10.8 0 0 1 12 22.85C6.007 22.85 1.15 17.992 1.15 12 1.15 6.007 6.007 1.15 12 1.15S22.85 6.007 22.85 12c0 2.116-.607 4.09-1.654 5.759zM19.454 19.5l.046-.045V17.27l.278-.45A9.1 9.1 0 0 0 21.15 12c0-5.045-4.104-9.15-9.15-9.15-5.045 0-9.15 4.105-9.15 9.15 0 5.046 4.104 9.15 9.15 9.15 1.71 0 3.377-.473 4.82-1.37l.448-.278h2.186"/></svg>
